build/img/bold-star.svg

<svg width="562" height="353" viewBox="0 0 562 353" fill="none" xmlns="http://www.w3.org/2000/svg">
<path d="M545.35 123.802L437.54 106.292L463.085 37.8714C468.732 22.7285 461.35 15.8444 446.656 22.5603L318.986 80.9275L265.689 7.40371C258.034 -3.14882 248.427 -1.66112 244.322 10.7123L215.76 96.9272L76.4163 79.9057C60.3787 77.9485 55.4249 86.7427 65.3869 99.4687L110.442 156.942L12.961 206.24C-5.37309 215.507 -3.78123 225.787 16.4993 229.09L124.309 246.601L98.7642 315.021C93.1176 330.164 100.499 337.048 115.194 330.332L242.863 271.965L296.163 345.504C303.818 356.057 313.425 354.569 317.53 342.195L346.092 255.981L485.435 273.002C501.473 274.959 506.427 266.165 496.465 253.439L451.423 195.949L548.888 146.652C567.222 137.386 565.631 127.105 545.35 123.802Z" fill="#5B6CFF"/>
</svg>

<svg width="562" height="353" fill="none" xmlns="http://www.w3.org/2000/svg"><path d="M545.35 123.802l-107.81-17.51 25.545-68.42c5.647-15.143-1.735-22.028-16.429-15.312l-127.67 58.367-53.297-73.523c-7.655-10.553-17.262-9.065-21.367 3.308L215.76 96.927 76.416 79.906c-16.037-1.958-20.991 6.837-11.03 19.563l45.056 57.473-97.481 49.298c-18.334 9.267-16.742 19.547 3.538 22.85l107.81 17.511-25.545 68.42c-5.646 15.143 1.735 22.027 16.43 15.311l127.669-58.367 53.3 73.539c7.655 10.553 17.262 9.065 21.367-3.309l28.562-86.214 139.343 17.021c16.038 1.957 20.992-6.837 11.03-19.563l-45.042-57.49 97.465-49.297c18.334-9.266 16.743-19.547-3.538-22.85z" fill="#5B6CFF"/></svg>
